X:46
%%score 1 2
%%pagewidth 7.0in
T:Walsingham
M:3/4
L:1/4
K:C
V:1 clef-treble
V:2 clef-bass octave=-1
V:1
c/d/ed & [EA]2[FA]|[EAc]AE|c/d/[ce][Bd] & EGF|[Ec]3|
w:As I went to Wal-sing-ham, To the shrine with speed,
V:2
A,2D|A3|AGG|cGC|
V:1
B/>c/d/d/e/d/ & FA[EB]|[EA(c]A)E|B/c/d(c/B/) & F[DA][E^G]|[CA]3||
w:Met I with a jol-ly pal* mer In a pil grim's* weed.
V:2
DF^G,|A,2C|DFE|A3||

